X:162
T:Forest Hunt. THO5.162, The
M:C|
L:1/8
B:Thompson's Complete Collection of 200 Favourite Dances Vol.5
F:https://www.libraryofdance.org/manuals/1780c-Thompson-Compleat-5.pdf
Z:vmp. Peter Dunk 2024
Q:1/4=140
K:C
c2 eg fdcB|cdec cBAG|cdec defd|egec cBAG|
c2 eg fdcB|cdec cBAG|Aagf edc B|c2c2 c4:|
|:g2ef g2g2|gfef g2g2|gfef gfef|gc'ba g2g2|
c2 eg fdcB|cdec cBAG|Aagf edcB|c2c2 c4:|
W:
W:Hey contrary sides ./.
W:then on your own sides ./:
W:lesd down the middle, through the bottom, the 2nd
W:Couple follow and cast up into thier own places :/.
W:Cross over one Couple and Right & left :/:

